img/roller.svg

<?xml version="1.0" ?><svg fill="none" height="80" viewBox="0 0 92 80" width="92" xmlns="http://www.w3.org/2000/svg"><circle cx="13.375" cy="65.125" fill="black" r="10.75" stroke="black"/><path d="M84.875 65.125C84.875 71.0865 80.29 75.875 74.6875 75.875C69.0849 75.875 64.5 71.0865 64.5 65.125C64.5 59.1635 69.0849 54.375 74.6875 54.375C80.29 54.375 84.875 59.1635 84.875 65.125Z" fill="black" stroke="black"/><path d="M48.9604 24.2273V3C48.9604 1.89543 49.8559 1 50.9604 1H84.263C85.3676 1 86.263 1.89405 86.263 2.99862V21.25C86.263 35.3369 96.9209 61.7499 86.263 61.7499H54.2894H48.9604H3C1.89543 61.7499 1 60.8552 1 59.7507V46.9366C1 41.4052 17.2968 34.9464 32.4383 30.3154C34.058 29.82 35.6645 29.3455 37.2364 28.8954C38.9768 28.3969 40.6747 27.9283 42.3013 27.494C44.0383 27.0302 45.6939 26.6056 47.2328 26.2257L47.426 26.1781C48.3249 25.957 48.9604 25.1531 48.9604 24.2273Z" fill="#0FC5FF"/><path d="M32.4383 30.3154C17.2968 34.9464 1 41.4052 1 46.9366C1 53.1615 1 56.8621 1 59.7507C1 60.8552 1.89543 61.7499 3 61.7499H48.9604H54.2894C61.3946 61.7499 77.7367 61.7499 86.263 61.7499C96.9209 61.7499 86.263 35.3369 86.263 21.25C86.263 12.4063 86.263 6.23743 86.263 2.99862C86.263 1.89405 85.3676 1 84.263 1H50.9604C49.8559 1 48.9604 1.89543 48.9604 3V24.2273C48.9604 25.1531 48.3249 25.957 47.426 26.1781C47.3618 26.1939 47.2974 26.2098 47.2328 26.2257M32.4383 30.3154C34.904 31.7017 39.7123 35.3423 39.2191 38.8137M32.4383 30.3154C34.058 29.82 35.6645 29.3455 37.2364 28.8954M37.2364 28.8954C39.3357 30.1352 43.5342 33.4826 43.5342 36.954M37.2364 28.8954C38.9768 28.3969 40.6747 27.9283 42.3013 27.494M42.3013 27.494C44.3561 28.3744 48.3424 31.127 47.8492 35.0943M42.3013 27.494C44.0383 27.0302 45.6939 26.6056 47.2328 26.2257M47.2328 26.2257C49.2876 27.3222 53.3972 30.2591 53.3972 33.2346" stroke="black"/><path d="M48.9604 61.7499H54.2894H86.263C93.5 61.7499 89.6594 49 89.9636 45.0127C89.2069 54.931 85.3413 52.6652 67 54C55.8413 54.6652 43.3106 54.0128 26.5023 54.931C15.8357 56.9147 5.05634 55.366 1 54.3437V59.2712C1 60.6406 2.10395 61.7499 3.46575 61.7499H48.9604Z" fill="#848187"/><path d="M26.5023 46.9366C26.5023 39.9044 20.0338 36.9663 16.333 36.259C15.9803 36.1916 15.6196 36.2416 15.2873 36.3776C14.1394 36.8472 13.0328 37.2792 11.9784 37.6908C5.50495 40.2181 1 41.9769 1 46.9366V54.3437C5.05634 55.366 15.8357 56.9147 26.5023 54.931V46.9366Z" fill="#848187"/><path d="M48.9604 61.7499H54.2894H86.263C93.5 61.7499 89.6594 49 89.9636 45.0127C89.2069 54.931 85.3413 52.6652 67 54C55.8413 54.6652 43.3106 54.0128 26.5023 54.931C15.8357 56.9147 5.05634 55.366 1 54.3437V59.2712C1 60.6406 2.10395 61.7499 3.46575 61.7499H48.9604Z" fill="#848187"/><path d="M48.9604 61.7499H54.2894H86.263C93.5 61.7499 89.6594 49 89.9636 45.0127C89.2069 54.931 85.3413 52.6652 67 54C55.8413 54.6652 43.3106 54.0128 26.5023 54.931C15.8357 56.9147 5.05634 55.366 1 54.3437V59.2712C1 60.6406 2.10395 61.7499 3.46575 61.7499H48.9604Z" fill="#848187"/><path d="M48.9604 61.7499H54.2894H86.263C93.5 61.7499 89.6594 49 89.9636 45.0127C89.2069 54.931 85.3413 52.6652 67 54C55.8413 54.6652 43.3106 54.0128 26.5023 54.931C15.8357 56.9147 5.05634 55.366 1 54.3437V59.2712C1 60.6406 2.10395 61.7499 3.46575 61.7499H48.9604Z" fill="#848187"/><path d="M1 46.9366C1 52.8225 1 56.4515 1 59.2712M1 46.9366V54.3437M1 46.9366C1 41.9769 5.50495 40.2181 11.9784 37.6908C13.0328 37.2792 14.1394 36.8472 15.2873 36.3776C15.6196 36.2416 15.9803 36.1916 16.333 36.259C20.0338 36.9663 26.5023 39.9044 26.5023 46.9366M54.2894 61.7499H48.9604H3.46575M54.2894 61.7499C61.3946 61.7499 77.7367 61.7499 86.263 61.7499M54.2894 61.7499H86.263M86.263 61.7499C93.5 61.7499 89.6594 49 89.9636 45.0127C89.2069 54.931 85.3413 52.6652 67 54C55.8413 54.6652 43.3106 54.0128 26.5023 54.931M26.5023 46.9366C26.5023 54.324 26.5023 55.7575 26.5023 54.931M26.5023 46.9366V54.931M26.5023 54.931C15.8357 56.9147 5.05634 55.366 1 54.3437M3.46575 61.7499C2.10395 61.7499 1 60.6406 1 59.2712M3.46575 61.7499H3C1.89543 61.7499 1 60.8545 1 59.7499C1 59.5928 1 59.4333 1 59.2712M1 59.2712V54.3437" stroke="black"/><path d="M75.25 31.1345L78.4083 35.7429L78.5089 35.8895L78.6794 35.9398L84.0382 37.5195L80.6314 41.9474L80.5229 42.0883L80.5278 42.266L80.6814 47.8507L75.4175 45.9789L75.25 45.9193L75.0825 45.9789L69.8185 47.8507L69.9721 42.266L69.977 42.0883L69.8686 41.9474L66.4617 37.5195L71.8206 35.9398L71.9911 35.8895L72.0916 35.7429L75.25 31.1345Z" fill="#FFF387" stroke="black"/><circle cx="80.3125" cy="69.0625" fill="#666666" r="10.1875" stroke="black"/><path d="M28.625 69.0625C28.625 74.7147 24.2906 79.25 19 79.25C13.7094 79.25 9.375 74.7147 9.375 69.0625C9.375 63.4103 13.7094 58.875 19 58.875C24.2906 58.875 28.625 63.4103 28.625 69.0625Z" fill="#666666" stroke="black"/><circle cx="80.3125" cy="69.0625" fill="white" r="2.31249"/><circle cx="80.3125" cy="69.0625" fill="white" r="2.31249"/><circle cx="80.3125" cy="69.0625" fill="white" r="2.31249"/><circle cx="80.3125" cy="69.0625" fill="white" r="2.31249"/><circle cx="80.3125" cy="69.0625" fill="white" r="2.31249"/><circle cx="80.3125" cy="69.0625" r="2.31249" stroke="black"/><path d="M21.875 69.0625C21.875 70.2582 20.677 71.375 19 71.375C17.3229 71.375 16.125 70.2582 16.125 69.0625C16.125 67.8668 17.3229 66.75 19 66.75C20.677 66.75 21.875 67.8668 21.875 69.0625Z" fill="white"/><path d="M21.875 69.0625C21.875 70.2582 20.677 71.375 19 71.375C17.3229 71.375 16.125 70.2582 16.125 69.0625C16.125 67.8668 17.3229 66.75 19 66.75C20.677 66.75 21.875 67.8668 21.875 69.0625Z" fill="white"/><path d="M21.875 69.0625C21.875 70.2582 20.677 71.375 19 71.375C17.3229 71.375 16.125 70.2582 16.125 69.0625C16.125 67.8668 17.3229 66.75 19 66.75C20.677 66.75 21.875 67.8668 21.875 69.0625Z" fill="white"/><path d="M21.875 69.0625C21.875 70.2582 20.677 71.375 19 71.375C17.3229 71.375 16.125 70.2582 16.125 69.0625C16.125 67.8668 17.3229 66.75 19 66.75C20.677 66.75 21.875 67.8668 21.875 69.0625Z" fill="white"/><path d="M21.875 69.0625C21.875 70.2582 20.677 71.375 19 71.375C17.3229 71.375 16.125 70.2582 16.125 69.0625C16.125 67.8668 17.3229 66.75 19 66.75C20.677 66.75 21.875 67.8668 21.875 69.0625Z" fill="white"/><path d="M21.875 69.0625C21.875 70.2582 20.677 71.375 19 71.375C17.3229 71.375 16.125 70.2582 16.125 69.0625C16.125 67.8668 17.3229 66.75 19 66.75C20.677 66.75 21.875 67.8668 21.875 69.0625Z" stroke="black"/></svg>

<svg fill="none" height="80" width="92" xmlns="http://www.w3.org/2000/svg"><circle cx="13.375" cy="65.125" fill="#000" r="10.75" stroke="#000"/><path d="M84.875 65.125c0 5.962-4.585 10.75-10.188 10.75-5.602 0-10.187-4.788-10.187-10.75s4.585-10.75 10.188-10.75c5.602 0 10.187 4.788 10.187 10.75z" fill="#000" stroke="#000"/><path d="M48.96 24.227V3a2 2 0 012-2h33.303c1.105 0 2 .894 2 1.999V21.25c0 14.087 10.658 40.5 0 40.5H3a2 2 0 01-2-2V46.938c0-5.532 16.297-11.99 31.438-16.622a291.893 291.893 0 0114.794-4.09l.194-.047a2.012 2.012 0 001.534-1.95z" fill="#0FC5FF"/><path d="M32.438 30.315C17.297 34.946 1 41.405 1 46.937V59.75a2 2 0 002 1.999h83.263c10.658 0 0-26.413 0-40.5V2.999a1.999 1.999 0 00-2-1.999H50.96a2 2 0 00-2 2v21.227c0 .926-.635 1.73-1.534 1.951l-.193.048m-14.795 4.09c2.466 1.386 7.274 5.026 6.781 8.498m-6.78-8.499c1.619-.495 3.225-.97 4.797-1.42m0 0c2.1 1.24 6.298 4.588 6.298 8.059m-6.298-8.059c1.74-.498 3.439-.967 5.065-1.401m0 0c2.055.88 6.041 3.633 5.548 7.6m-5.548-7.6c1.737-.464 3.393-.888 4.932-1.268m0 0c2.055 1.096 6.164 4.033 6.164 7.009" stroke="#000"/><path d="M48.96 61.75h37.303c7.237 0 3.396-12.75 3.7-16.737C89.208 54.93 85.342 52.665 67 54c-11.159.665-23.69.013-40.498.931-10.666 1.984-21.446.435-25.502-.587v4.927a2.472 2.472 0 002.466 2.479H48.96z" fill="#848187"/><path d="M26.502 46.937c0-7.033-6.468-9.97-10.169-10.678a1.844 1.844 0 00-1.046.119c-1.148.47-2.254.901-3.309 1.313C5.505 40.218 1 41.977 1 46.937v7.407c4.056 1.022 14.836 2.57 25.502.587v-7.994z" fill="#848187"/><path d="M48.96 61.75h37.303c7.237 0 3.396-12.75 3.7-16.737C89.208 54.93 85.342 52.665 67 54c-11.159.665-23.69.013-40.498.931-10.666 1.984-21.446.435-25.502-.587v4.927a2.472 2.472 0 002.466 2.479H48.96z" fill="#848187"/><path d="M48.96 61.75h37.303c7.237 0 3.396-12.75 3.7-16.737C89.208 54.93 85.342 52.665 67 54c-11.159.665-23.69.013-40.498.931-10.666 1.984-21.446.435-25.502-.587v4.927a2.472 2.472 0 002.466 2.479H48.96z" fill="#848187"/><path d="M48.96 61.75h37.303c7.237 0 3.396-12.75 3.7-16.737C89.208 54.93 85.342 52.665 67 54c-11.159.665-23.69.013-40.498.931-10.666 1.984-21.446.435-25.502-.587v4.927a2.472 2.472 0 002.466 2.479H48.96z" fill="#848187"/><path d="M1 46.937V59.27m0-12.334v7.407m0-7.407c0-4.96 4.505-6.719 10.978-9.246 1.055-.412 2.161-.844 3.31-1.313a1.844 1.844 0 011.045-.119c3.7.707 10.17 3.645 10.17 10.678M54.288 61.75H3.466m50.823 0h31.974m-31.974 0h31.974m0 0c7.237 0 3.396-12.75 3.7-16.737C89.208 54.93 85.342 52.665 67 54c-11.159.665-23.69.013-40.498.931m0-7.994v7.994m0-7.994v7.994m0 0C15.836 56.915 5.056 55.366 1 54.344m2.466 7.406A2.472 2.472 0 011 59.27m2.466 2.479H3a2 2 0 01-2-2v-.479m0 0v-4.927" stroke="#000"/><path d="M75.25 31.134l3.158 4.609.1.146.171.05 5.36 1.58-3.408 4.428-.108.141.005.178.153 5.585-5.263-1.872-.168-.06-.168.06-5.263 1.872.153-5.585.005-.178-.108-.14-3.407-4.428 5.359-1.58.17-.05.1-.147 3.159-4.609z" fill="#FFF387" stroke="#000"/><circle cx="80.313" cy="69.063" fill="#666" r="10.188" stroke="#000"/><path d="M28.625 69.063c0 5.652-4.334 10.187-9.625 10.187-5.29 0-9.625-4.535-9.625-10.188 0-5.652 4.334-10.187 9.625-10.187 5.29 0 9.625 4.535 9.625 10.188z" fill="#666" stroke="#000"/><circle cx="80.313" cy="69.063" fill="#fff" r="2.312"/><circle cx="80.313" cy="69.063" fill="#fff" r="2.312"/><circle cx="80.313" cy="69.063" fill="#fff" r="2.312"/><circle cx="80.313" cy="69.063" fill="#fff" r="2.312"/><circle cx="80.313" cy="69.063" fill="#fff" r="2.312"/><circle cx="80.313" cy="69.063" r="2.312" stroke="#000"/><path d="M21.875 69.063c0 1.195-1.198 2.312-2.875 2.312s-2.875-1.117-2.875-2.313c0-1.195 1.198-2.312 2.875-2.312s2.875 1.117 2.875 2.313z" fill="#fff"/><path d="M21.875 69.063c0 1.195-1.198 2.312-2.875 2.312s-2.875-1.117-2.875-2.313c0-1.195 1.198-2.312 2.875-2.312s2.875 1.117 2.875 2.313z" fill="#fff"/><path d="M21.875 69.063c0 1.195-1.198 2.312-2.875 2.312s-2.875-1.117-2.875-2.313c0-1.195 1.198-2.312 2.875-2.312s2.875 1.117 2.875 2.313z" fill="#fff"/><path d="M21.875 69.063c0 1.195-1.198 2.312-2.875 2.312s-2.875-1.117-2.875-2.313c0-1.195 1.198-2.312 2.875-2.312s2.875 1.117 2.875 2.313z" fill="#fff"/><path d="M21.875 69.063c0 1.195-1.198 2.312-2.875 2.312s-2.875-1.117-2.875-2.313c0-1.195 1.198-2.312 2.875-2.312s2.875 1.117 2.875 2.313z" fill="#fff"/><path d="M21.875 69.063c0 1.195-1.198 2.312-2.875 2.312s-2.875-1.117-2.875-2.313c0-1.195 1.198-2.312 2.875-2.312s2.875 1.117 2.875 2.313z" stroke="#000"/></svg>
